boxicons/svg/regular/bx-arrow-to-left.svg

<svg xmlns="http://www.w3.org/2000/svg" width="24" height="24" viewBox="0 0 24 24"><path d="M4 6h2v12H4zm10.293-.707L7.586 12l6.707 6.707 1.414-1.414L11.414 13H20v-2h-8.586l4.293-4.293z"/></svg>

<svg xmlns="http://www.w3.org/2000/svg" width="24" height="24" viewBox="0 0 24 24"><path d="M4 6H6V18H4zM14.293 5.293L7.586 12 14.293 18.707 15.707 17.293 11.414 13 20 13 20 11 11.414 11 15.707 6.707z"/></svg>
